src/actions/24/upload-media.svg

<svg xmlns="http://www.w3.org/2000/svg" viewBox="0 0 24 24">
  <defs id="defs3051">
    <style type="text/css" id="current-color-scheme">
      .ColorScheme-Text {
        color:#2e3440;
      }
      </style>
  </defs>
 <path style="fill:currentColor;fill-opacity:1;stroke:none" 
     d="M 4 4 L 4 20 L 20 20 L 20 9 L 19 9 L 19 19 L 5 19 L 5 5 L 14 5 L 14 4 L 4 4 z M 16.5 4 L 15.792969 4.7070312 L 13 7.5 L 13.707031 8.2070312 L 16 5.9140625 L 16 10.207031 L 16 11 L 17 11 L 17 5.9140625 L 19.292969 8.2070312 L 20 7.5 L 17.207031 4.7070312 L 16.5 4 z M 8.5 6 C 7.115 6 6 7.115 6 8.5 C 6 9.885 7.115 11 8.5 11 C 9.885 11 11 9.885 11 8.5 C 11 7.115 9.885 6 8.5 6 z M 8.5 7 C 9.331 7 10 7.669 10 8.5 C 10 9.331 9.331 10 8.5 10 C 7.669 10 7 9.331 7 8.5 C 7 7.669 7.669 7 8.5 7 z M 14.994141 11 L 11.648438 14.34375 L 10.306641 13 L 10.300781 13.007812 L 10.292969 13 L 6 17.292969 L 6.7070312 18 L 10.298828 14.408203 L 10.941406 15.050781 L 11.648438 15.757812 L 12.355469 15.050781 L 15 12.40625 L 17.292969 14.699219 L 18 13.992188 L 15.007812 11 L 15 11.007812 L 14.994141 11 z "
     class="ColorScheme-Text"
     />
</svg>

<svg viewBox="0 0 24 24" xmlns="http://www.w3.org/2000/svg">
 <defs>
  <style type="text/css">.ColorScheme-Text {
        color:#2e3440;
      }</style>
 </defs>
 <path class="ColorScheme-Text" d="m4 4v16h16v-11h-1v10h-14v-14h9v-1h-10zm12.5 0-3.5 3.5 0.70703 0.70703 2.293-2.293v4.293 0.79297h1v-5.0859l2.293 2.293 0.70703-0.70703-3.5-3.5zm-8 2c-1.385 0-2.5 1.115-2.5 2.5s1.115 2.5 2.5 2.5 2.5-1.115 2.5-2.5-1.115-2.5-2.5-2.5zm0 1c0.831 0 1.5 0.669 1.5 1.5s-0.669 1.5-1.5 1.5-1.5-0.669-1.5-1.5 0.669-1.5 1.5-1.5zm6.4941 4-3.3457 3.3438-1.3418-1.3438-0.00586 0.007812-0.007812-0.007812-4.293 4.293 0.70703 0.70703 3.5918-3.5918 1.3496 1.3496 3.3516-3.3516 2.293 2.293 0.70703-0.70703-2.9922-2.9922-0.007812 0.007812-0.005859-0.007812z" fill="currentColor"/>
</svg>
